packages/kaspersky-hexa-ui-icons/src/iconsSVGs/28x20/FlagBm.svg

<svg width="28" height="20" viewBox="0 0 28 20" fill="none" xmlns="http://www.w3.org/2000/svg">
<g clip-path="url(#clip0_5138_530)">
<rect width="28" height="20" rx="2" fill="white"/>
<mask id="mask0_5138_530" style="mask-type:luminance" maskUnits="userSpaceOnUse" x="0" y="0" width="28" height="20">
<rect width="28" height="20" rx="2" fill="white"/>
</mask>
<g mask="url(#mask0_5138_530)">
<rect width="28" height="20" fill="#DC1F37"/>
<rect width="12" height="9.33333" fill="#042C90"/>
<mask id="mask1_5138_530" style="mask-type:alpha" maskUnits="userSpaceOnUse" x="0" y="0" width="12" height="10">
<rect width="12" height="9.33333" fill="#042C90"/>
</mask>
<g mask="url(#mask1_5138_530)">
<mask id="path-6-outside-1_5138_530" maskUnits="userSpaceOnUse" x="-2" y="-2" width="15" height="13" fill="black">
<rect fill="white" x="-2" y="-2" width="15" height="13"/>
<path fill-rule="evenodd" clip-rule="evenodd" d="M4.66667 4L0 0H0.666667L5.33333 3.33333H6.66667L12 0V0.495127C12 0.602778 11.948 0.703801 11.8604 0.766372L7.33333 4V5.33333L11.5475 8.94545C11.7029 9.07867 11.6087 9.33333 11.404 9.33333C11.358 9.33333 11.3132 9.31897 11.2758 9.29226L6.66667 6H5.33333L0 9.33333V8.66667L4.66667 5.33333V4Z"/>
</mask>
<path fill-rule="evenodd" clip-rule="evenodd" d="M4.66667 4L0 0H0.666667L5.33333 3.33333H6.66667L12 0V0.495127C12 0.602778 11.948 0.703801 11.8604 0.766372L7.33333 4V5.33333L11.5475 8.94545C11.7029 9.07867 11.6087 9.33333 11.404 9.33333C11.358 9.33333 11.3132 9.31897 11.2758 9.29226L6.66667 6H5.33333L0 9.33333V8.66667L4.66667 5.33333V4Z" fill="#DB1E36"/>
<path fill-rule="evenodd" clip-rule="evenodd" d="M4.66667 4L0 0H0.666667L5.33333 3.33333H6.66667L12 0V0.495127C12 0.602778 11.948 0.703801 11.8604 0.766372L7.33333 4V5.33333L11.5475 8.94545C11.7029 9.07867 11.6087 9.33333 11.404 9.33333C11.358 9.33333 11.3132 9.31897 11.2758 9.29226L6.66667 6H5.33333L0 9.33333V8.66667L4.66667 5.33333V4Z" stroke="white" stroke-width="1.33333" mask="url(#path-6-outside-1_5138_530)"/>
<path fill-rule="evenodd" clip-rule="evenodd" d="M0 3.33333V6H4.66667V9.33333C4.66667 9.70152 4.96514 10 5.33333 10H6.66667C7.03486 10 7.33333 9.70152 7.33333 9.33333V6H12C12.3682 6 12.6667 5.70152 12.6667 5.33333V4C12.6667 3.63181 12.3682 3.33333 12 3.33333H7.33333V0H4.66667V3.33333H0Z" fill="white"/>
<path fill-rule="evenodd" clip-rule="evenodd" d="M0 4H5.33333V3.33333V0H6.66667V3.33333V4H12V5.33333H6.66667V6V9.33333H5.33333V6V5.33333H0V4Z" fill="url(#paint0_linear_5138_530)"/>
</g>
</g>
<g clip-path="url(#clip1_5138_530)">
<path fill-rule="evenodd" clip-rule="evenodd" d="M17.3333 10C17.3333 8.00002 17.3333 6.66669 17.3333 6.66669H20H22.6667C22.6667 6.66669 22.6667 8.00002 22.6667 10C22.6667 12 20 13.3334 20 13.3334C20 13.3334 17.3333 12 17.3333 10Z" fill="white"/>
<mask id="mask2_5138_530" style="mask-type:luminance" maskUnits="userSpaceOnUse" x="17" y="6" width="6" height="8">
<path fill-rule="evenodd" clip-rule="evenodd" d="M17.3333 10C17.3333 8.00002 17.3333 6.66669 17.3333 6.66669H20H22.6667C22.6667 6.66669 22.6667 8.00002 22.6667 10C22.6667 12 20 13.3334 20 13.3334C20 13.3334 17.3333 12 17.3333 10Z" fill="white"/>
</mask>
<g mask="url(#mask2_5138_530)">
<circle cx="20" cy="10.6667" r="1.33333" fill="#65B5D2"/>
<path fill-rule="evenodd" clip-rule="evenodd" d="M20.6667 8.66667C20.6667 9.03486 20.3682 9.33333 20 9.33333C19.6318 9.33333 19.3333 9.03486 19.3333 8.66667C19.3333 8.29848 19.6318 8 20 8C20.3682 8 20.6667 8.29848 20.6667 8.66667ZM19.3333 10C19.3333 10.3682 19.0349 10.6667 18.6667 10.6667C18.2985 10.6667 18 10.3682 18 10C18 9.63181 18.2985 9.33333 18.6667 9.33333C19.0349 9.33333 19.3333 9.63181 19.3333 10ZM21.3333 10.6667C21.7015 10.6667 22 10.3682 22 10C22 9.63181 21.7015 9.33333 21.3333 9.33333C20.9651 9.33333 20.6667 9.63181 20.6667 10C20.6667 10.3682 20.9651 10.6667 21.3333 10.6667Z" fill="url(#paint1_linear_5138_530)"/>
<rect x="17.3333" y="12" width="5.33333" height="1.33333" fill="#2F8F22"/>
</g>
</g>
</g>
<defs>
<linearGradient id="paint0_linear_5138_530" x1="0" y1="0" x2="0" y2="9.33333" gradientUnits="userSpaceOnUse">
<stop stop-color="#DB1E36"/>
<stop offset="1" stop-color="#D51931"/>
</linearGradient>
<linearGradient id="paint1_linear_5138_530" x1="18" y1="8" x2="18" y2="10.6667" gradientUnits="userSpaceOnUse">
<stop stop-color="#E20B0C"/>
<stop offset="1" stop-color="#D40001"/>
</linearGradient>
<clipPath id="clip0_5138_530">
<rect width="28" height="20" fill="white"/>
</clipPath>
<clipPath id="clip1_5138_530">
<rect width="6" height="7" fill="white" transform="translate(17.3333 6.66669)"/>
</clipPath>
</defs>
</svg>

<svg xmlns="http://www.w3.org/2000/svg" width="28" height="20" fill="none" viewBox="0 0 28 20"><g clip-path="url(#a)"><rect width="28" height="20" fill="#fff" rx="2"/><mask id="b" width="28" height="20" x="0" y="0" maskUnits="userSpaceOnUse" style="mask-type:luminance"><rect width="28" height="20" fill="#fff" rx="2"/></mask><g mask="url(#b)"><path fill="#dc1f37" d="M0 0h28v20H0z"/><path fill="#042c90" d="M0 0h12v9.3333H0z"/><mask id="c" width="12" height="10" x="0" y="0" maskUnits="userSpaceOnUse" style="mask-type:alpha"><path fill="#042c90" d="M0 0h12v9.3333H0z"/></mask><g mask="url(#c)"><mask id="d" width="15" height="13" x="-2" y="-2" fill="#000" maskUnits="userSpaceOnUse"><path fill="#fff" d="M-2-2h15v13H-2z"/><path fill-rule="evenodd" d="M4.6667 4 0 0h.6667l4.6666 3.3333h1.3334L12 0v.4951a.333.333 0 0 1-.1396.2713L7.3334 4v1.3333l4.2141 3.6121c.1554.1333.0612.388-.1435.388a.22.22 0 0 1-.1282-.0411L6.6667 6H5.3333L0 9.3333v-.6666l4.6667-3.3334z" clip-rule="evenodd"/></mask><path fill="#db1e36" fill-rule="evenodd" d="M4.6667 4 0 0h.6667l4.6666 3.3333h1.3334L12 0v.4951a.333.333 0 0 1-.1396.2713L7.3334 4v1.3333l4.2141 3.6121c.1554.1333.0612.388-.1435.388a.22.22 0 0 1-.1282-.0411L6.6667 6H5.3333L0 9.3333v-.6666l4.6667-3.3334z" clip-rule="evenodd"/><path stroke="#fff" d="M4.6667 4 0 0h.6667l4.6666 3.3333h1.3334L12 0v.4951a.333.333 0 0 1-.1396.2713L7.3334 4v1.3333l4.2141 3.6121c.1554.1333.0612.388-.1435.388a.22.22 0 0 1-.1282-.0411L6.6667 6H5.3333L0 9.3333v-.6666l4.6667-3.3334z" clip-rule="evenodd" mask="url(#d)"/><path fill="#fff" fill-rule="evenodd" d="M0 3.3333V6h4.6667v3.3333c0 .3682.2984.6667.6666.6667h1.3334a.6667.6667 0 0 0 .6666-.6667V6H12a.6667.6667 0 0 0 .6667-.6667V4A.6667.6667 0 0 0 12 3.3333H7.3333V0H4.6667v3.3333z" clip-rule="evenodd"/><path fill="url(#e)" fill-rule="evenodd" d="M0 4h5.3333V0h1.3334v4H12v1.3333H6.6667v4H5.3333v-4H0z" clip-rule="evenodd"/></g></g><g clip-path="url(#f)"><path fill="#fff" fill-rule="evenodd" d="M17.3333 10V6.6667h5.3334V10c0 2-2.6667 3.3334-2.6667 3.3334S17.3333 12 17.3333 10" clip-rule="evenodd"/><mask id="g" width="6" height="8" x="17" y="6" maskUnits="userSpaceOnUse" style="mask-type:luminance"><path fill="#fff" fill-rule="evenodd" d="M17.3333 10V6.6667h5.3334V10c0 2-2.6667 3.3334-2.6667 3.3334S17.3333 12 17.3333 10" clip-rule="evenodd"/></mask><g mask="url(#g)"><circle cx="20" cy="11" r="1" fill="#65b5d2"/><path fill="url(#h)" fill-rule="evenodd" d="M20.6667 8.6667a.6667.6667 0 1 1-1.3334 0 .6667.6667 0 0 1 1.3334 0M19.3333 10A.6666.6666 0 1 1 18 10a.6667.6667 0 0 1 1.3333 0m2 .6667a.6667.6667 0 1 0 0-1.3334.6667.6667 0 0 0 0 1.3334" clip-rule="evenodd"/><path fill="#2f8f22" d="M17.3333 12h5.3333v1.3333h-5.3333z"/></g></g></g><defs><linearGradient id="e" x1="0" x2="0" y1="0" y2="9" gradientUnits="userSpaceOnUse"><stop stop-color="#db1e36"/><stop offset="1" stop-color="#d51931"/></linearGradient><linearGradient id="h" x1="18" x2="18" y1="8" y2="11" gradientUnits="userSpaceOnUse"><stop stop-color="#e20b0c"/><stop offset="1" stop-color="#d40001"/></linearGradient><clipPath id="a"><path fill="#fff" d="M0 0h28v20H0z"/></clipPath><clipPath id="f"><path fill="#fff" d="M17.3333 6.6667h6v7h-6z"/></clipPath></defs></svg>
